X:64
T:Now Praise We Christ, the Holy One
%%stretchlast false
M:4/4
L:1/4
K:C clef=C1
"^ii"[D,F,A,D]2 [D,A,DF] "^I"[C,CEG] | "^ii¹"[F,A,DA] "^V"[G,B,D]/ "^vi"[G,A,CD]/ "^iii"[E,G,B,G]/ "^I¹"[E,G,CG]/ "^ii"[D,A,DF] | "^VI"[A,^CE]2 "^iii"[E,E] "^V7²"[D,B,FG] | "^ii"[A,DA] "^I"[CEGc] "^I²"[G,EGc] "^vii°¹"[D,DFB] | "^v"[G,DGA] "^V"[C,DGB] "^I"[C,EGc] [CEc] | "^vi"[A,E] "^iv"[F,CFG] [C,CGA] "^vi7³"[G,A,Gc] | "^vi"[A,Ec] "^iii7"[E,DEB] "^vi"[A,CA] [A,B,C^G] | "^v"[G,A,DA] "^IV"[F,A,FA] "^ii"[D,F] "^I"[C,B,DE] | "^IV"[F,CA] "^ii"[E,DEA]/ "^vi¹"[C,DEA]/ [D,G,Dc] "^vi²"[E,A,CA] | "^iii"[E,B,G]/ "^vi²"[E,A,CA]/ "^IV"[E,A,B,F] "^vi"[E,A,B,E] "^III"[E,^G,B,E]/ [E,^F,B,E]/ | [E,^G,B,E]4 |]
